favicon.svg

<svg xmlns="http://www.w3.org/2000/svg" width="800" height="800" class="icon flat-line" data-name="Flat Line" viewBox="0 0 24 24"><path d="M17 15v-5a1 1 0 0 0-1-1H8a1 1 0 0 0-1 1v5a5 5 0 0 0 5 5 5 5 0 0 0 5-5" style="fill:#2ca9bc;stroke-width:2"/><path d="M16 18a5 5 0 0 1 2.72 3v0" style="fill:none;stroke:#000;stroke-linecap:round;stroke-linejoin:round;stroke-width:2"/><path d="M8 18a5 5 0 0 0-2.72 3v0M17.22 3a2.82 2.82 0 0 1-1.82 2.05l-.89.31m-5.02 0-.89-.31A2.82 2.82 0 0 1 6.78 3h0M21 7.1l-.53.9A5.42 5.42 0 0 1 17 10.47h0m0 3.03a5.06 5.06 0 0 1 3.65 2.31l.35.55M7 10.47A5.42 5.42 0 0 1 3.53 8L3 7.1m0 9.26.35-.55A5.06 5.06 0 0 1 7 13.5h0" data-name="primary" style="fill:none;stroke:#000;stroke-linecap:round;stroke-linejoin:round;stroke-width:2"/><path d="M17 15v-5a1 1 0 0 0-1-1H8a1 1 0 0 0-1 1v5a5 5 0 0 0 5 5h0a5 5 0 0 0 5-5m-2-6H9V7a3 3 0 0 1 3-3h0a3 3 0 0 1 3 3Z" data-name="primary" style="fill:none;stroke:#000;stroke-linecap:round;stroke-linejoin:round;stroke-width:2"/></svg>

<svg fill="#000000" width="800px" height="800px" viewBox="0 0 24 24" id="bug" data-name="Flat Line" xmlns="http://www.w3.org/2000/svg" class="icon flat-line"><path id="secondary" d="M17,15V10a1,1,0,0,0-1-1H8a1,1,0,0,0-1,1v5a5,5,0,0,0,5,5h0A5,5,0,0,0,17,15Z" style="fill: rgb(44, 169, 188); stroke-width: 2;"></path><path id="primary" d="M16,18h0A5,5,0,0,1,18.72,21V21" style="fill: none; stroke: rgb(0, 0, 0); stroke-linecap: round; stroke-linejoin: round; stroke-width: 2;"></path><path id="primary-2" data-name="primary" d="M8,18H8A5,5,0,0,0,5.28,21V21" style="fill: none; stroke: rgb(0, 0, 0); stroke-linecap: round; stroke-linejoin: round; stroke-width: 2;"></path><path id="primary-3" data-name="primary" d="M17.22,3h0A2.82,2.82,0,0,1,15.4,5.05l-.89.31" style="fill: none; stroke: rgb(0, 0, 0); stroke-linecap: round; stroke-linejoin: round; stroke-width: 2;"></path><path id="primary-4" data-name="primary" d="M9.49,5.36,8.6,5.05A2.82,2.82,0,0,1,6.78,3h0" style="fill: none; stroke: rgb(0, 0, 0); stroke-linecap: round; stroke-linejoin: round; stroke-width: 2;"></path><path id="primary-5" data-name="primary" d="M21,7.1,20.47,8A5.42,5.42,0,0,1,17,10.47h0" style="fill: none; stroke: rgb(0, 0, 0); stroke-linecap: round; stroke-linejoin: round; stroke-width: 2;"></path><path id="primary-6" data-name="primary" d="M17,13.5h0a5.06,5.06,0,0,1,3.65,2.31l.35.55" style="fill: none; stroke: rgb(0, 0, 0); stroke-linecap: round; stroke-linejoin: round; stroke-width: 2;"></path><path id="primary-7" data-name="primary" d="M7,10.47H7A5.42,5.42,0,0,1,3.53,8L3,7.1" style="fill: none; stroke: rgb(0, 0, 0); stroke-linecap: round; stroke-linejoin: round; stroke-width: 2;"></path><path id="primary-8" data-name="primary" d="M3,16.36l.35-.55A5.06,5.06,0,0,1,7,13.5H7" style="fill: none; stroke: rgb(0, 0, 0); stroke-linecap: round; stroke-linejoin: round; stroke-width: 2;"></path><path id="primary-9" data-name="primary" d="M17,15V10a1,1,0,0,0-1-1H8a1,1,0,0,0-1,1v5a5,5,0,0,0,5,5h0A5,5,0,0,0,17,15ZM15,9H9V7a3,3,0,0,1,3-3h0a3,3,0,0,1,3,3Z" style="fill: none; stroke: rgb(0, 0, 0); stroke-linecap: round; stroke-linejoin: round; stroke-width: 2;"></path></svg>
